icons/svg/meteor.svg

﻿<?xml version="1.0" encoding="utf-8"?>
<!DOCTYPE svg PUBLIC "-//W3C//DTD SVG 1.1//EN" "http://www.w3.org/Graphics/SVG/1.1/DTD/svg11.dtd">
<svg xmlns="http://www.w3.org/2000/svg" xmlns:xlink="http://www.w3.org/1999/xlink" version="1.1" baseProfile="full" width="24" height="24" viewBox="0 0 24.00 24.00" enable-background="new 0 0 24.00 24.00" xml:space="preserve">
	<path fill="#000000" fill-opacity="1" stroke-width="1.33333" stroke-linejoin="miter" d="M 2.8,3.0083L 19.6741,18.8226C 19.6741,18.8226 19.9913,19.2663 19.579,19.71C 19.1666,20.1537 18.6274,19.7734 18.6274,19.7734L 2.8,3.0083 Z M 7.81149,4.59291L 20.9111,16.6359C 20.9111,16.6359 21.2283,17.0796 20.816,17.5232C 20.4037,17.9669 19.8644,17.5866 19.8644,17.5866L 7.81149,4.59291 Z M 4.29075,7.98396L 17.3904,20.0269C 17.3904,20.0269 17.7076,20.4706 17.2953,20.9143C 16.8829,21.358 16.3437,20.9777 16.3437,20.9777L 4.29075,7.98396 Z M 12.0481,5.95567L 21.2,14.3694C 21.2,14.3694 21.4216,14.6793 21.1335,14.9893C 20.8454,15.2993 20.4687,15.0336 20.4687,15.0336L 12.0481,5.95567 Z M 5.45065,11.9138L 14.6026,20.3275C 14.6026,20.3275 14.8242,20.6374 14.5361,20.9474C 14.248,21.2574 13.8713,20.9917 13.8713,20.9917L 5.45065,11.9138 Z M 16.3754,7.92057L 20.5537,11.7362C 20.5537,11.7362 20.6633,11.8815 20.5208,12.0267C 20.3783,12.172 20.192,12.0475 20.192,12.0475L 16.3754,7.92057 Z M 7.55774,16.0971L 11.736,19.9128C 11.736,19.9128 11.8456,20.058 11.7031,20.2033C 11.5606,20.3485 11.3743,20.224 11.3743,20.224L 7.55774,16.0971 Z "/>
</svg>

<svg xmlns="http://www.w3.org/2000/svg" version="1.1" baseProfile="full" width="24" height="24" viewBox="0 0 24.00 24.00" xml:space="preserve"><path fill="#000" fill-opacity="1" stroke-width="1.333" stroke-linejoin="miter" d="M2.8 3.008l16.874 15.815s.317.443-.095.887c-.413.444-.953.063-.953.063L2.8 3.008zm5.01 1.585l13.1 12.043s.318.444-.094.887c-.412.444-.952.064-.952.064L7.81 4.593zm-3.52 3.39l13.1 12.044s.318.444-.095.887c-.412.444-.95.064-.95.064L4.29 7.984zm7.758-2.027L21.2 14.37s.222.31-.066.62c-.29.31-.665.044-.665.044l-8.422-9.078zM5.45 11.914l9.153 8.414s.22.31-.067.62c-.288.31-.665.044-.665.044l-8.42-9.078zM16.376 7.92l4.18 3.816s.108.146-.034.29c-.142.146-.328.02-.328.02l-3.817-4.125zm-8.817 8.177l4.178 3.816s.11.145-.033.29c-.142.146-.33.02-.33.02L7.56 16.098z"/></svg>
